static/img/kroki/409d879e052294058c2cbba2f237865c.svg

<?xml version="1.0" encoding="us-ascii" standalone="no"?><svg xmlns="http://www.w3.org/2000/svg" xmlns:xlink="http://www.w3.org/1999/xlink" contentStyleType="text/css" height="152px" preserveAspectRatio="none" style="width:320px;height:152px;" version="1.1" viewBox="0 0 320 152" width="320px" zoomAndPan="magnify"><defs/><g><!--class aws_athena_data_catalog--><g id="elem_aws_athena_data_catalog"><rect codeLine="22" fill="#3D176E" height="39.7891" id="aws_athena_data_catalog" rx="2.5" ry="2.5" style="stroke:#000D19;stroke-width:0.5;" width="258" x="31" y="7"/><ellipse cx="46" cy="26.8945" fill="#ADD1B2" rx="11" ry="11" style="stroke:#181818;stroke-width:1.0;"/><path d="M48.9688,32.5352 Q48.3906,32.832 47.75,32.9727 Q47.1094,33.1289 46.4063,33.1289 Q43.9063,33.1289 42.5781,31.4883 Q41.2656,29.832 41.2656,26.707 Q41.2656,23.582 42.5781,21.9258 Q43.9063,20.2695 46.4063,20.2695 Q47.1094,20.2695 47.75,20.4258 Q48.4063,20.582 48.9688,20.8789 L48.9688,23.5977 Q48.3438,23.0195 47.75,22.7539 Q47.1563,22.4727 46.5313,22.4727 Q45.1875,22.4727 44.5,23.5508 Q43.8125,24.6133 43.8125,26.707 Q43.8125,28.8008 44.5,29.8789 Q45.1875,30.9414 46.5313,30.9414 Q47.1563,30.9414 47.75,30.6758 Q48.3438,30.3945 48.9688,29.8164 L48.9688,32.5352 Z " fill="#000000"/><text fill="#D9B8FF" font-family="Helvetica" font-size="17" lengthAdjust="spacing" textLength="216" x="65" y="32.7798">aws_athena_data_catalog</text></g><!--class aws_sagemaker_processing_job--><g id="elem_aws_sagemaker_processing_job"><rect codeLine="24" fill="#3D176E" height="39.7891" id="aws_sagemaker_processing_job" rx="2.5" ry="2.5" style="stroke:#000D19;stroke-width:0.5;" width="306" x="7" y="106.79"/><ellipse cx="22" cy="126.6845" fill="#ADD1B2" rx="11" ry="11" style="stroke:#181818;stroke-width:1.0;"/><path d="M24.9688,132.3252 Q24.3906,132.622 23.75,132.7627 Q23.1094,132.9189 22.4063,132.9189 Q19.9063,132.9189 18.5781,131.2783 Q17.2656,129.622 17.2656,126.497 Q17.2656,123.372 18.5781,121.7158 Q19.9063,120.0595 22.4063,120.0595 Q23.1094,120.0595 23.75,120.2158 Q24.4063,120.372 24.9688,120.6689 L24.9688,123.3877 Q24.3438,122.8095 23.75,122.5439 Q23.1563,122.2627 22.5313,122.2627 Q21.1875,122.2627 20.5,123.3408 Q19.8125,124.4033 19.8125,126.497 Q19.8125,128.5908 20.5,129.6689 Q21.1875,130.7314 22.5313,130.7314 Q23.1563,130.7314 23.75,130.4658 Q24.3438,130.1845 24.9688,129.6064 L24.9688,132.3252 Z " fill="#000000"/><text fill="#D9B8FF" font-family="Helvetica" font-size="17" lengthAdjust="spacing" textLength="264" x="41" y="132.5698">aws_sagemaker_processing_job</text></g><!--link aws_athena_data_catalog to aws_sagemaker_processing_job--><g id="link_aws_athena_data_catalog_aws_sagemaker_processing_job"><path codeLine="26" d="M160,47.22 C160,62.49 160,83.92 160,100.53 " fill="none" id="aws_athena_data_catalog-to-aws_sagemaker_processing_job" style="stroke:#1A83AF;stroke-width:2.0;"/><polygon fill="#1A83AF" points="160,105.41,164,96.41,160,100.41,156,96.41,160,105.41" style="stroke:#1A83AF;stroke-width:2.0;"/></g><!--SRC=[XP91IyD048Nl_HKBFHSIWwQz2B5Gz5B4UXC9a-niiYRP3RDJInN_kschiariUzd3l8ytxmrRQea2cvQtei4cGt8ZLsdJ0a4Z4YAxcTlQaXWh1IgA- -B26hu8BA51SO_rExBEeKyybpgl33edhZpf3lAg8Bisyc3F1CPr4Xhsg7aDpYNCfBCrenT6phAfKdsoRpgEP1ZVu02p995-a208P3Zh8nTNdUtzHwpq1uhGFzhICWvY3bRigRCfTuGNSb3qLp-PyH6arAOGrzxiwP293DBHV5M2j9iThQ1s_Xh7I6Xvs-9yq0fdKwdYV-67Kt2-kvo0ZKk1IpIGIc18y-wfRI4-HryUuQ301Ygaj2MRTn-i2vY-sMoFdRAOl8p3P1ebYzV9xLcNRm00]--></g></svg>

<svg xmlns="http://www.w3.org/2000/svg" width="320" height="152" preserveAspectRatio="none" style="width:320px;height:152px"><rect width="258" height="39.789" x="31" y="7" fill="#3D176E" rx="2.5" ry="2.5" style="stroke:#000d19;stroke-width:.5"/><circle cx="46" cy="26.895" r="11" fill="#ADD1B2" style="stroke:#181818;stroke-width:1"/><path d="M48.969 32.535q-.578.297-1.219.438-.64.156-1.344.156-2.5 0-3.828-1.64-1.312-1.657-1.312-4.782t1.312-4.781q1.328-1.656 3.828-1.656.703 0 1.344.156.656.156 1.219.453v2.719q-.625-.578-1.219-.844-.594-.281-1.219-.281-1.343 0-2.031 1.078-.688 1.062-.688 3.156 0 2.094.688 3.172.688 1.062 2.031 1.062.625 0 1.219-.265.594-.281 1.219-.86v2.72Z"/><text x="65" y="32.78" fill="#D9B8FF" font-family="Helvetica" font-size="17" textLength="216">aws_athena_data_catalog</text><rect width="306" height="39.789" x="7" y="106.79" fill="#3D176E" rx="2.5" ry="2.5" style="stroke:#000d19;stroke-width:.5"/><circle cx="22" cy="126.684" r="11" fill="#ADD1B2" style="stroke:#181818;stroke-width:1"/><path d="M24.969 132.325q-.578.297-1.219.438-.64.156-1.344.156-2.5 0-3.828-1.64-1.312-1.657-1.312-4.782t1.312-4.781q1.328-1.656 3.828-1.656.703 0 1.344.156.656.156 1.219.453v2.719q-.625-.579-1.219-.844-.594-.281-1.219-.281-1.343 0-2.031 1.078-.688 1.062-.688 3.156 0 2.094.688 3.172.688 1.062 2.031 1.062.625 0 1.219-.265.594-.281 1.219-.86v2.72Z"/><text x="41" y="132.57" fill="#D9B8FF" font-family="Helvetica" font-size="17" textLength="264">aws_sagemaker_processing_job</text><path fill="none" d="M160 47.22v53.31" style="stroke:#1a83af;stroke-width:2"/><path fill="#1A83AF" d="m160 105.41 4-9-4 4-4-4 4 9z" style="stroke:#1a83af;stroke-width:2"/></svg>
